apps/marketing/public/favicon.svg

<svg width="256" height="256" viewBox="0 0 256 256" fill="none" xmlns="http://www.w3.org/2000/svg">
<path d="M120.553 28.5159C120.658 28.5007 120.763 28.4846 120.868 28.4694C145.188 26.4387 169.298 33.9463 188.063 49.407C208.918 66.5056 221.991 91.2971 224.32 118.165C226.494 141.403 219.641 165.276 204.536 183.226C192.246 197.868 174.625 207.006 155.576 208.615C135.662 210.175 115.845 204.4 100.716 191.177C73.2274 167.15 66.1775 122.644 91.1768 94.282C101.498 82.6559 116.019 75.612 131.54 74.7028C146.162 73.8793 161.006 78.8004 171.868 88.7028C180.94 97.1114 186.293 108.786 186.744 121.148C187.52 140.712 176.807 156.698 157.72 161.934C155.212 162.596 152.451 163.168 149.845 163.179C135.251 163.238 117.338 151.471 120.035 135.066C120.83 130.227 122.374 127.034 125.854 123.643C128.705 120.864 132.186 119.432 136.143 119.6C140.658 119.793 144.246 122.936 142.689 127.605C141.646 130.044 138.675 132.288 138.513 135.058C138.143 141.402 144.481 145.606 150.238 145.746C154.983 145.861 159.196 143.406 162.383 140.162C172.608 129.753 169.586 112.7 159.786 103.155C152.903 96.4435 144.263 93.8323 134.864 93.8917C124.199 93.9398 113.989 98.2178 106.476 105.788C97.2378 115.166 93.6669 126.388 93.6846 139.296C93.8971 144.341 94.427 147.897 95.9959 152.775C100.175 165.778 109.409 176.553 121.619 182.673C152.644 198.467 187.01 182.871 202.006 152.868C210.318 135.964 211.562 116.448 205.464 98.6259C198.786 78.8918 184.546 62.6172 165.873 53.3797C96.6374 19.5429 26.21 92.7626 50.9277 162.215C61.1971 190.914 84.9319 212.723 114.397 220.533C118.222 221.568 122.109 222.361 126.033 222.905C128.607 223.27 133.687 223.239 135.666 224.171C136.477 225.826 136.433 225.032 136.137 226.594C135.286 227.509 134.023 227.97 132.79 227.982C109.714 228.194 84.9866 219.466 67.4779 205.194C47.1163 188.362 34.2602 164.142 31.7277 137.845C28.9511 111.038 37.0351 84.2355 54.17 63.4334C70.8206 43.4877 94.6836 30.9358 120.553 28.5159Z" fill="url(#paint0_linear_16_2)"/>
<defs>
<linearGradient id="paint0_linear_16_2" x1="101.59" y1="32.5934" x2="153.887" y2="221.483" gradientUnits="userSpaceOnUse">
<stop stop-color="#E09B3F"/>
<stop offset="1" stop-color="#DD8649"/>
</linearGradient>
</defs>
</svg>

<svg xmlns="http://www.w3.org/2000/svg" width="256" height="256" fill="none"><path fill="url(#a)" d="m120.553 28.516.315-.047c24.32-2.03 48.43 5.477 67.195 20.938a100.1 100.1 0 0 1 36.257 68.758c2.174 23.238-4.679 47.111-19.784 65.061a71.8 71.8 0 0 1-48.96 25.389c-19.914 1.56-39.731-4.215-54.86-17.438-27.489-24.027-34.538-68.533-9.54-96.895a58.55 58.55 0 0 1 40.364-19.58c14.622-.823 29.466 4.098 40.328 14a46.55 46.55 0 0 1 14.876 32.446c.776 19.564-9.937 35.55-29.024 40.786-2.508.662-5.269 1.234-7.875 1.245-14.594.059-32.507-11.708-29.81-28.113.795-4.839 2.339-8.032 5.819-11.423 2.851-2.779 6.332-4.211 10.289-4.043 4.515.193 8.103 3.336 6.546 8.005-1.043 2.439-4.014 4.683-4.176 7.453-.37 6.344 5.968 10.548 11.725 10.688 4.745.115 8.958-2.34 12.145-5.584 10.225-10.409 7.203-27.462-2.597-37.007-6.883-6.712-15.523-9.323-24.922-9.263a40.25 40.25 0 0 0-28.388 11.896c-9.238 9.378-12.81 20.6-12.791 33.508.212 5.045.742 8.601 2.31 13.479a50.85 50.85 0 0 0 25.624 29.898c31.025 15.794 65.391.198 80.387-29.805a70.9 70.9 0 0 0 3.458-54.242 78.58 78.58 0 0 0-39.591-45.246C96.637 19.543 26.21 92.763 50.928 162.215a92.61 92.61 0 0 0 63.469 58.318 94 94 0 0 0 11.636 2.372c2.574.365 7.654.334 9.633 1.266.811 1.655.767.861.471 2.423-.851.915-2.114 1.376-3.347 1.388-23.076.212-47.803-8.516-65.312-22.788a99.8 99.8 0 0 1-35.75-67.349A100.72 100.72 0 0 1 54.17 63.433a98.4 98.4 0 0 1 66.383-34.917"/><defs><linearGradient id="a" x1="101.59" x2="153.887" y1="32.593" y2="221.483" gradientUnits="userSpaceOnUse"><stop stop-color="#E09B3F"/><stop offset="1" stop-color="#DD8649"/></linearGradient></defs></svg>
